X:1779
T:The Bantry Hornpipe
M:C|
L:1/8
N:"collected by Crenin"
B:O'Neill's 1779
R:Hornpipe
Z:"Transcribed by Bob Safranek, rjs@gsp.org"
K:G
   (dc) |   BAG(B  cB)cA | dbg(e de)dB | cecA ((3Bcd)   (BG)  | FGA(G FD)EG |
            BAB(G  cB)cA | dbg(e de)dB | cedc ((3BAG) ((3AGF) | G2 B2 G2   :|
|: (cB) |   AGA(B  cB)ce | dfg(e dc)dB | cecA ((3Bcd)    BG   | FGA(G FD)EF |
          (GF)(GA) BGFD  | GABG  ABcA  | dgfe ((3ded) ((3cBA) | G2 B2 G2   :|
|:  Bc  |  dgBg   dgBg  | ((3gfg) bg fdef | gage dedc | ((3BAG) ((3AGF) G(DB,D)|
           G(gge) dBGB  | cBc(d ef)ge | dgfe ((3ded) ((3cBA) | G2 B2 G2 :|
|:(dc)|B(GGF) G(DB,D) |((3GFG) (BG) ABcA |(dc)(de) f(dcA) |((3ded) (cA) d2 (cA)|
    B(GGF) G(DB,D) | ((3GFG) ((3BAG) ABcA | d(gfe) ((3ded) ((3cBA) | G2 B2 G2 :|


